Bloom-Colors/16x16/devices/device_pci.svg

<svg width="16" height="16" version="1.1" xmlns="http://www.w3.org/2000/svg">
<defs>
<style id="current-color-scheme" type="text/css">.ColorScheme-Text { color:#444444; } .ColorScheme-Highlight { color:#4285f4; }</style>
</defs>
<path class="ColorScheme-Text" d="m1 0c-1.325 0-1.325 2 0 2h1v3h-2v3h2v1h-2v3h2v2c0 1.325 2 1.325 2 0v-13c0-0.99996-1-0.99996-1-0.99996zm4 3v2h9v8h-6v-2h-3v2h1v2h10v-12zm-4 3h1v1h-1zm5 0v4h1v-4zm2 0v4h1v-4zm2 0v4h1v-4zm2 0v4h1v-4zm-11 4h1v1h-1z" fill="#666"/>
</svg>

<svg xmlns="http://www.w3.org/2000/svg" width="16" height="16" version="1.1">
 <defs>
  <style id="current-color-scheme" type="text/css">
   .ColorScheme-Text { color:#444444; } .ColorScheme-Highlight { color:#4285f4; }
  </style>
 </defs>
 <path style="fill:currentColor" class="ColorScheme-Text" d="M 1,0 C -0.325,0 -0.325,2 1,2 H 2 V 5 H 0 V 8 H 2 V 9 H 0 V 12 H 2 V 14 C 2,15.325 4,15.325 4,14 V 0.99996 C 4,0 3,0 3,0 Z M 5,3 V 5 H 14 V 13 H 8 V 11 H 5 V 13 H 6 V 15 H 16 V 3 Z M 1,6 H 2 V 7 H 1 Z M 6,6 V 10 H 7 V 6 Z M 8,6 V 10 H 9 V 6 Z M 10,6 V 10 H 11 V 6 Z M 12,6 V 10 H 13 V 6 Z M 1,10 H 2 V 11 H 1 Z"/>
</svg>
